X: 1699
T: The Lakeside Road
M:2/4
L:1/16
B:O'Neill's 1699
N:"collected by J.O'Neill"
K:G
D-F \
| G2GF GBdB | cdef gfge | dBGB dBGB | ABcA GFED |
| G2GFGBdB | cdef gfge | dgdcBcAF | G2GGG2 :|
|: B-c \
| d2Bd GdBd | e2ce Aece | d2Bd GdBd | AFDF AFDF |
| d2BdGdBd | cdef gfge | dgdc BcAF | G2GGG2 :|


